src/2-landmarks/service-module--handle-card.svg

<svg width="1300" height="1000" viewBox="0 0 1300 1000" fill="none" xmlns="http://www.w3.org/2000/svg"><path d="M0 900h1300v100H0V900Zm788-366h7v366h-7V534Zm385 0h7v366h-7V534Z" fill="#000"/><path fill-rule="evenodd" clip-rule="evenodd" d="M788.5 500c-11.322 0-20.5 9.178-20.5 20.5s9.178 20.5 20.5 20.5h391c11.32 0 20.5-9.178 20.5-20.5s-9.18-20.5-20.5-20.5h-391Zm0 7c-7.456 0-13.5 6.044-13.5 13.5s6.044 13.5 13.5 13.5h391c7.46 0 13.5-6.044 13.5-13.5s-6.04-13.5-13.5-13.5h-391Z" fill="#000"/><path d="m781.666 374.621-38.771-44.473 28.85-25.151 38.772 44.472-28.851 25.152Z" fill="#fff" stroke="#000" stroke-width="7"/><path d="M1061 375.996c17.53 36.035 23.5 94.004 23.5 94.004 0 11.495.37 18.22 0 30.5H921l1.82-16.5 4.68-60.5-55 63.496a5 5 0 0 1-7.594-.066L787.5 396l-9.5-30.5c-1.987-7.032-1.117-12.851 6.002-14.5 5.089-1.178 7.507-.78 10.5 3.5l24 34 49 45.996s19.626-27.718 40-58.5c24.498-22.496 40.525-29.454 77.5-29.029 40.118.435 64.328 5.033 75.998 29.029Z" fill="#fff"/><path d="M1066 376c17.52 36.035 23.43 91.5 23.43 93.163 0 11.494-.26 24.057-.63 36.337h-7.49l.13-33.029h-.01s-4.44-56.684-20.98-91.956c-14.2-28.557-36.99-32.069-74.961-32.494-17.99-.213-58.49 2.979-80.27 32.494-24.22 37.506-37.72 59.485-37.72 59.485l-51.5-50-22.856-34.285a7.221 7.221 0 0 0-6.008-3.215c-4.816 0-8.282 4.626-6.929 9.248l9.293 31.752 77.234 90.32a3 3 0 0 0 4.561.023l57.416-65.487a.97.97 0 0 1 1.699.717l-5.91 68.427-1.77 18h-8.049l1.819-18.5 7-52.5-50.664 59.101a5 5 0 0 1-7.594-.066L781.999 396l-8.349-33.081c-1.987-7.033 3.308-15.299 10.428-16.948 5.088-1.178 11.382 1.854 14.375 6.135l25.046 34.394 42.5 42s13.5-22.5 33.874-53.282c25.626-27.218 48.968-34.623 85.943-34.197 40.124.434 65.134 5.804 80.184 34.979Z" fill="#000"/><path d="M1038.6 419.336 1042 488l1.75 17.5h8.07l-3.31-36.409-7.46-50.009a1.234 1.234 0 0 0-1.21-1.07 1.236 1.236 0 0 0-1.24 1.324Zm-38.951-86.25c-3.769 1.408-10.807 1.91-12.649 1.914 0 0-8.301-.069-13.135-1.914-5.448-2.079-8.483-4.109-12.162-8.575-2.49-3.022-4.438-8.223-5.322-10.853-.362-1.079-.611-2.188-.801-3.31l-4.093-24.154s-.495-3.492-.487-5.742c.02-5.351.746-8.493 2.919-13.398 2.232-5.038 4.184-7.735 8.27-11.484 4.356-3.996 7.495-5.742 13.135-7.625 4.38-1.462 7.052-1.907 11.676-1.945 4.963.167 6.811.478 11.548 1.945 4.742 1.577 9.582 4.373 13.262 7.625 3.68 3.252 6.26 7.101 8.27 11.484s2.92 8.615 2.92 13.398c0 1.803-.2 3.959-.49 5.742l-4.86 23.833a25.09 25.09 0 0 1-1.01 3.617c-1.04 2.793-3.21 8.177-5.32 10.829-2.92 3.676-7.16 6.929-11.671 8.613Z" fill="#000"/><path d="M997.189 326.387c-3.036 1.186-8.705 1.609-10.189 1.613 0 0-6.687-.058-10.581-1.613-4.389-1.752-6.834-3.462-9.797-7.226-1.949-2.474-3.485-6.68-4.224-8.951-.338-1.039-.567-2.105-.741-3.184l-3.265-20.155s-.399-2.943-.392-4.839c.016-4.509.601-7.156 2.351-11.29 1.799-4.246 3.371-6.518 6.663-9.677 3.508-3.368 6.037-4.839 10.581-6.426 3.527-1.232 5.68-1.607 9.405-1.639 3.998.141 5.487.403 9.302 1.639 3.818 1.329 7.718 3.685 10.688 6.426 2.96 2.74 5.04 5.983 6.66 9.677s2.35 7.26 2.35 11.29c0 1.52-.16 3.337-.39 4.839l-3.88 19.862a24.563 24.563 0 0 1-.93 3.486c-.87 2.407-2.56 6.742-4.21 8.91-2.35 3.098-5.77 5.839-9.401 7.258Z" fill="#fff"/></svg>

<svg width="1300" height="1000" viewBox="0 0 1300 1000" fill="none" xmlns="http://www.w3.org/2000/svg">
<path d="M0 900H1300V1000H0V900Z" fill="black"/>
<path d="M788 534H795V900H788V534Z" fill="black"/>
<path d="M1173 534H1180V900H1173V534Z" fill="black"/>
<path fill-rule="evenodd" clip-rule="evenodd" d="M788.5 500C777.178 500 768 509.178 768 520.5C768 531.822 777.178 541 788.5 541H1179.5C1190.82 541 1200 531.822 1200 520.5C1200 509.178 1190.82 500 1179.5 500H788.5ZM788.5 507C781.044 507 775 513.044 775 520.5C775 527.956 781.044 534 788.5 534H984H1179.5C1186.96 534 1193 527.956 1193 520.5C1193 513.044 1186.96 507 1179.5 507H788.5Z" fill="black"/>
<path d="M781.666 374.621L742.895 330.148L771.745 304.997L810.517 349.469L781.666 374.621Z" fill="white" stroke="black" stroke-width="7"/>
<path d="M1061 375.996C1078.53 412.031 1084.5 470 1084.5 470C1084.5 481.495 1084.87 488.22 1084.5 500.5H921L922.82 484L927.5 423.5L872.5 486.996C870.484 489.308 866.881 489.277 864.906 486.93L787.5 396L778 365.5C776.013 358.468 776.883 352.649 784.002 351C789.091 349.822 791.509 350.22 794.502 354.5L818.502 388.5L867.502 434.496C867.502 434.496 887.128 406.778 907.502 375.996C932 353.5 948.027 346.542 985.002 346.967C1025.12 347.402 1049.33 352 1061 375.996Z" fill="white"/>
<path d="M1066 376C1083.52 412.035 1089.43 467.5 1089.43 469.163C1089.43 480.657 1089.17 493.22 1088.8 505.5H1081.31L1081.44 472.471H1081.43C1081.43 472.471 1076.99 415.787 1060.45 380.515C1046.25 351.958 1023.46 348.446 985.489 348.021C967.499 347.808 926.999 351 905.219 380.515C880.999 418.021 867.499 440 867.499 440L815.999 390L793.143 355.715C791.804 353.707 789.55 352.5 787.135 352.5C782.319 352.5 778.853 357.126 780.206 361.748L789.499 393.5L866.733 483.82C867.923 485.227 870.089 485.239 871.294 483.843L928.71 418.356C928.894 418.143 929.161 418.021 929.443 418.021C930.011 418.021 930.457 418.507 930.409 419.073L924.499 487.5L922.729 505.5H914.68L916.499 487L923.499 434.5L872.835 493.601C870.819 495.913 867.216 495.882 865.241 493.535L781.999 396L773.65 362.919C771.663 355.886 776.958 347.62 784.078 345.971C789.166 344.793 795.46 347.825 798.453 352.106L823.499 386.5L865.999 428.5C865.999 428.5 879.499 406 899.873 375.218C925.499 348 948.841 340.595 985.816 341.021C1025.94 341.455 1050.95 346.825 1066 376Z" fill="black"/>
<path d="M1038.6 419.336L1042 488L1043.75 505.5H1051.82L1048.51 469.091L1041.05 419.082C1040.97 418.474 1040.45 418.017 1039.84 418.012C1039.12 418.006 1038.55 418.618 1038.6 419.336Z" fill="black"/>
<path d="M999.649 333.086C995.88 334.494 988.842 334.996 987 335C987 335 978.699 334.931 973.865 333.086C968.417 331.007 965.382 328.977 961.703 324.511C959.213 321.489 957.265 316.288 956.381 313.658C956.019 312.579 955.77 311.47 955.58 310.348L951.487 286.194C951.487 286.194 950.992 282.702 951 280.452C951.02 275.101 951.746 271.959 953.919 267.054C956.151 262.016 958.103 259.319 962.189 255.57C966.545 251.574 969.684 249.828 975.324 247.945C979.704 246.483 982.376 246.038 987 246C991.963 246.167 993.811 246.478 998.548 247.945C1003.29 249.522 1008.13 252.318 1011.81 255.57C1015.49 258.822 1018.07 262.671 1020.08 267.054C1022.09 271.437 1023 275.669 1023 280.452C1023 282.255 1022.8 284.411 1022.51 286.194L1017.65 310.027C1017.4 311.256 1017.07 312.468 1016.64 313.644C1015.6 316.437 1013.43 321.821 1011.32 324.473C1008.4 328.149 1004.16 331.402 999.649 333.086Z" fill="black"/>
<path d="M997.189 326.387C994.153 327.573 988.484 327.996 987 328C987 328 980.313 327.942 976.419 326.387C972.03 324.635 969.585 322.925 966.622 319.161C964.673 316.687 963.137 312.481 962.398 310.21C962.06 309.171 961.831 308.105 961.657 307.026L958.392 286.871C958.392 286.871 957.993 283.928 958 282.032C958.016 277.523 958.601 274.876 960.351 270.742C962.15 266.496 963.722 264.224 967.014 261.065C970.522 257.697 973.051 256.226 977.595 254.639C981.122 253.407 983.275 253.032 987 253C990.998 253.141 992.487 253.403 996.302 254.639C1000.12 255.968 1004.02 258.324 1006.99 261.065C1009.95 263.805 1012.03 267.048 1013.65 270.742C1015.27 274.436 1016 278.002 1016 282.032C1016 283.552 1015.84 285.369 1015.61 286.871L1011.73 306.733C1011.5 307.917 1011.2 309.084 1010.8 310.219C1009.93 312.626 1008.24 316.961 1006.59 319.129C1004.24 322.227 1000.82 324.968 997.189 326.387Z" fill="white"/>
</svg>
